X: 31456
T: Paddy Taylor's
R: reel
M: 4/4
K: Dmajor
FEDF A3F|GE=cE dE=cE|FEDF ABAF|GEcE ED D2|
FEDF ABAF|GE E2 =cE E2|FEDF ABAF|GEcE EDD2||
Addc d3A|Be e2 Be e2|f2 ec d2 cA|(3Bcd AG FDD2|
Addc d3A|(3Bcd ef g2fg|af (3gfe fdec|dBAG FDD2||
F3G A2dG|G2 dG G2 dG|FEFG A2 dc|A2 GE FDD2:|

